X: 661
T: Planxty Dobbins
C:O'Carolan
B:O'Neill's 661
Z: 1997 by John Chambers <jc@trillian.mit.edu>
N:"Moderate"
M:3/4
L:1/8
K:G
((3def) \
| g2 agfe | a2 d2 d2 | ~g2 B2 B2 | e2 A2 A2 \
| ~d2 G2 G2 | g2 fgaf | g6- | g4 ||
|| (ga) \
| b2 gabg | c'2 gabg | ~b2 g2 e2 | e4 (fg) \
| a2 fgaf | b2 gabg | ~a2 f2 d2 | d4 ((3def) |
| g2 agfe | a2 d2 d2 | ~g2 B2 B2 | e2 A2 A2 \
| ~d2 G2 G2 | g2 fgaf | g6- | g2 z2 ||
|| z2 \
| GG G2 G2 | GG G2 G2 | cA A2 A2 | cA A2 A2 \
| Bc d2 d2 | d2 e2 c2 | Bc d2 d2 | d2 e2 d2 |
| b2 gabg | c'2 gabg | b2 gabg | ~a2 f2 d2 \
| e4 ag | ~f2 d2 f2 | g6 | g4 ((3efe) |
| d2 B2 A2 | e4 A2 | A2 B2 A2 | d4 G2 \
| G2 A2 G2 | e4 ag | ~f2 d2 f2 | g4 |]


